X:2004
T:Flatworld (Cutting)
O:england
M:3/4
L:1/8
K:C
e de|ce Be Ac|F2AB cA|f2 fe dc|B3 e de|\
ce Be Ac|F2 fe dc|BG Bd cB|A3:|z2E
|:AB cA ag|f2 fe dc|Bc dB gf|e2 ed cB|AB cA fe|\
d2 dc BA|1 B2 Bd ^cd|B2 BB cB:|2 B2 Bd cB|A6||


